public/images/logos/sdks/svelte.svg

<svg xmlns="http://www.w3.org/2000/svg" width="49" height="59" viewBox="0 0 49 59" fill="none"><g clip-path="url(#clip0_530_7513)"><path d="M45.7478 7.77362C40.3155 -0.0508779 29.5007 -2.3434 21.7261 2.59051L8.02075 11.3619C4.28294 13.7043 1.69138 17.5418 0.943822 21.8776C0.295934 25.5158 0.844147 29.2536 2.58846 32.493C1.39236 34.2872 0.594959 36.2807 0.246096 38.3739C-0.551304 42.8094 0.495284 47.3945 3.08684 51.0326C8.56897 58.8571 19.3339 61.1496 27.1085 56.2157L40.8139 47.4941C44.5517 45.1518 47.1432 41.3143 47.8908 36.9784C48.5387 33.3403 47.9905 29.6025 46.2461 26.363C47.4422 24.5689 48.2396 22.5754 48.5885 20.4822C49.4357 15.9968 48.3892 11.4118 45.7478 7.77362Z" fill="#FF3E00"/><path d="M20.3791 51.7801C15.9436 52.9264 11.3087 51.182 8.71711 47.4442C7.1223 45.2514 6.52425 42.5103 6.97279 39.8191C7.07247 39.3705 7.17214 38.9719 7.27182 38.5233L7.52101 37.7259L8.21873 38.2243C9.86337 39.4204 11.6575 40.3175 13.6012 40.9155L14.0996 41.065L14.0497 41.5634C13.9999 42.2611 14.1992 43.0087 14.5979 43.6067C15.3953 44.753 16.7908 45.3012 18.1364 44.9524C18.4354 44.8527 18.7345 44.753 18.9836 44.6035L32.6391 35.8819C33.3368 35.4334 33.7854 34.7855 33.9349 33.9881C34.0844 33.1907 33.8851 32.3435 33.4365 31.6956C32.6391 30.5493 31.2437 30.0509 29.8981 30.3998C29.599 30.4995 29.3 30.5991 29.0508 30.7487L23.8179 34.0878C22.9706 34.636 22.0237 35.0347 21.027 35.2839C16.5914 36.4301 11.9565 34.6858 9.36499 30.948C7.82003 28.7552 7.17214 26.0141 7.67052 23.3229C8.11906 20.7313 9.71386 18.3889 11.9565 16.9935L25.6619 8.27192C26.5091 7.72371 27.456 7.32501 28.4528 7.02599C32.8883 5.87972 37.5232 7.62404 40.1148 11.3619C41.7096 13.5547 42.3076 16.2958 41.8591 18.987C41.7594 19.4355 41.6597 19.8342 41.5102 20.2828L41.261 21.0802L40.5633 20.5818C38.9187 19.3857 37.1245 18.4886 35.1808 17.8906L34.6825 17.7411L34.7323 17.2427C34.7821 16.545 34.5828 15.7974 34.1841 15.1993C33.3867 14.0531 31.9912 13.5547 30.6456 13.9036C30.3466 14.0032 30.0476 14.1029 29.7984 14.2524L16.1429 22.974C15.4452 23.4225 14.9966 24.0704 14.8471 24.8678C14.6976 25.6652 14.897 26.5125 15.3455 27.1604C16.1429 28.3066 17.5384 28.805 18.884 28.4561C19.183 28.3565 19.482 28.2568 19.7312 28.1073L24.9641 24.7682C25.8114 24.2199 26.7583 23.8212 27.755 23.5222C32.1906 22.3759 36.8255 24.1203 39.417 27.8581C41.0118 30.0509 41.6099 32.792 41.1613 35.4832C40.7128 38.0748 39.118 40.4171 36.8753 41.8126L23.17 50.5342C22.3228 51.0824 21.3758 51.4811 20.3791 51.7801Z" fill="white"/></g><defs><clipPath id="clip0_530_7513"><rect width="48.8906" height="58.8083" fill="white"/></clipPath></defs></svg>

<svg xmlns="http://www.w3.org/2000/svg" width="49" height="59" fill="none"><g clip-path="url(#a)"><path fill="#ff3e00" d="M45.748 7.774C40.316-.051 29.5-2.343 21.726 2.59L8.021 11.36c-3.738 2.343-6.33 6.18-7.077 10.517-.648 3.638-.1 7.376 1.644 10.615a15.05 15.05 0 0 0-2.342 5.88 16.78 16.78 0 0 0 2.84 12.66C8.57 58.857 19.335 61.15 27.11 56.216l13.705-8.722c3.738-2.342 6.33-6.18 7.077-10.516.648-3.638.1-7.376-1.645-10.615a15.05 15.05 0 0 0 2.343-5.88 16.42 16.42 0 0 0-2.841-12.71"/><path fill="#fff" d="M20.38 51.78a10.86 10.86 0 0 1-11.663-4.336c-1.595-2.193-2.193-4.934-1.744-7.625.1-.449.2-.847.299-1.296l.249-.797.698.498a18.2 18.2 0 0 0 5.382 2.692l.499.149-.05.498a3.34 3.34 0 0 0 .548 2.044c.797 1.146 2.193 1.694 3.538 1.345.3-.1.599-.199.848-.349l13.655-8.721c.698-.449 1.146-1.096 1.296-1.894a3.1 3.1 0 0 0-.498-2.292c-.798-1.147-2.193-1.645-3.539-1.296-.299.1-.598.2-.847.349l-5.233 3.339a9.3 9.3 0 0 1-2.791 1.196 10.86 10.86 0 0 1-11.662-4.336c-1.545-2.193-2.193-4.934-1.694-7.625.448-2.592 2.043-4.934 4.286-6.33l13.705-8.721c.847-.548 1.794-.947 2.79-1.246a10.86 10.86 0 0 1 11.663 4.336c1.595 2.193 2.193 4.934 1.744 7.625-.1.449-.2.847-.349 1.296l-.249.797-.698-.498a18.2 18.2 0 0 0-5.382-2.691l-.498-.15.05-.498a3.34 3.34 0 0 0-.549-2.044c-.797-1.146-2.193-1.644-3.538-1.295-.3.1-.598.199-.848.348l-13.655 8.722c-.698.448-1.146 1.096-1.296 1.894s.05 1.645.498 2.292c.798 1.147 2.193 1.645 3.539 1.296.299-.1.598-.2.847-.349l5.233-3.339c.847-.548 1.794-.947 2.791-1.246a10.86 10.86 0 0 1 11.662 4.336c1.595 2.193 2.193 4.934 1.744 7.625-.448 2.592-2.043 4.934-4.286 6.33L23.17 50.534c-.847.548-1.794.947-2.79 1.246"/></g><defs><clipPath id="a"><path fill="#fff" d="M0 0h48.891v58.808H0z"/></clipPath></defs></svg>
